X:1
T:The Well-Tempered Clavier Book II - XXII
T:BWV 891    (A = 415 Hz)
T:J. S. Bach
%%score { ( 1 3 ) | ( 2 4 ) }
L:1/8
Q:1/4=200
M:2/2
K:Db
V:1 treble 
V:3 treble 
V:2 bass 
V:4 bass 
V:1
"^Prestissimo""^Praeludium" dcB=A B2 F2 | G2 E2 C2 F2 | z4 bagf | gfed cfef | d2 F2 z dcd | %5
 e2 B2 c4 | d2 z2 z4 | a=gf=e f2 c2 | d2 B2 =G2 c2 | A2 F2 f2 f2 | f2 =ef =g2 g2 | =g2 fg a2 a2 | %12
 a2 f2 =g2 b2 | b2 =e2 f4- | f4 =e4 | f2 c2 Ae=de | f2 B2 A2 f2- | f2 ef g2 B2 | ABcd efge | %19
 f2 G2 F2 d2 | B6 ed | c6 B2- | Bcde =Agfe | dfed cB=Ac | B2 dc d2 d2 | d2 cd e2 e2 | e2 de fagf | %27
 edce A4 | d4 z4 | z Bcd efge | fedc d2 A2 | B2 G2 E2 A2 | F2 D2 d2 d2 | d2 cd e2 e2 | %34
 e2 de f2 f2 | f2 ef =gabg | a8- | a8- | a2 =ga b2 d2- | d2 cd e2 G2- | GF=GA BcdB | c4 z4 | %42
 z edc BA=GB | E4 z2 G2 | F2 B2 z2 A2 | G2 _c2 z2 B2 | A2 d2 z2 _c2 | B4 z4 | z8 | z2 d2 g2 g2 | %50
 g2 f^f a2 a2 | a2 gf g4- | g2 _c'b agfa | =dcde fgaf | gfe=d e2 B2 | _c2 A2 F2 B2 | G2 E2 e2 e2 | %57
 e2 =de f2 f2 | f2 e=d e4- | ed_cB cABc- | cB=c=d efge | f2 F2 B4- | B4 =A4 | B=ABc defd | %64
 edcd efge | f4 z2 bf | gagf edce | =A2 c2 f2 d2 | efge cgfe | d4 c2 f2 | B4 A2 d2 | G8- | %72
 GFED CDEC | DEF=G =ABcA | BcdB cdec | def=g =abc'a | b8- | b8- | b8- | b2 =ab c'2 e2- | %80
 e2 de fe[de]=A | B3 c =A3 B | !fermata!B8 | z8 |[M:6/4]"^Fuga" z12 | z12 | z12 | z12 | %88
 F4 =G4 z2 A2 | B2 =E2 F4 z2 =G2 | AF=GABG ABcABc | dB c2 z2 d2 =G2 =AB | =A2 f2 z2 B2 F2 =G_A | %93
 =G2 e4 =A4 Bc | F2 B4 =A=G A2 B2 | cd e4 d2 ce g2 | f2 z2 c2 z2 d2 z2 | e4- ed cd e2 c2 | %98
 f2 =d2 BA Bc _d2 B2 | e2 c2 A2 d2 c2 =E2 | F4 F2 =E=D E2 c2 | d2 c4 =B2 c4- | c2 z2 =e2 z2 f2 z2 | %103
 =g12- | g2 f=e f8- | f12- | f2 gf e8- | e12- | e2 dc d2 f2 B2 d2- | d2 cd e2 c2 =A2 c2- | %110
 c2 B2 z2 g2- gfed | cd e2 z2 b2 c'2 e2- | e2 d2 g2 z2 f2 z2 | b2 z2 =a8 | b2 z2 z4 z4 | z12 | %116
 d4 e4 z2 f2 | g2 c2 d4 z2 e2 | fdefge fgafga | bg a2 z2 b2 e2 fg | f2 z2 g2 z2 a2 z2 | %121
 z2 g2 f2 _f4 ed | e2 fg f2 =ga g4 | a2 z2 z4 z4 | z2 f2 =e2 _e4 dc | d2 b2 =a2 _a2 g2 f2 | %126
 g2 c2 d2 =d2 e2 B2 | _d2 z2 =A2 z2 B2 z2 | e2 d2- dc de =A4 | B4 z4 z4 | z12 | z12 | z12 | z12 | %134
 z12 | d4 c4 z2 B2 | =A2 e2 d4 z2 _c2 | Bd_cBAc BAGBAG | FA G2 z2 F2 _c2 BA | B2 e4 d_c d2 g2- | %140
 g2 _fed_c BA B4- | B2 A4 =G2 A4- | A2 a2 =g2 _g2 f2 _f2 | e12- | e2 d_cd_f edcBA=G | A12- | %146
 ABAGAB _c4 BA | B12- | BcB=ABc d4 cB | cdcBcd e4 dc | d2 z2 g4 f4 | z2 e2 =d2 _a2 g4 | %152
 z2 f2 eg fedfed | cedcBd c2 z2 B2 | f2 ed e6 dc | dedc B2 b4 a=g | a4- a2 =g4 f2 | %157
 =e4 _e2 =a2 b2 =e2 | f2 z2 =e2 z2 f2 z2 | B2 cB A2 BA =G2 z2 | z2 =G2 d2 cB c4- | c2 BA d6 cB | %162
 e6 dc f2 z2 | e4 d4 z2 c2 | B2 f2 e4 z2 d2 | cedcBd cBAcBA | =GB A2 z2 G2 d2 cB | c2 d2 G6 G2 | %168
 e2 dc d2 e2 A4- | A2 A2 f2 ed e2 f2 | B6 =A=G A2 B2 | E8- E2 DC | D2 B4 =A2 B3 _A | %173
 G4 F2 =d2 e2 _dc | f2 z2 G2 z2 F2 z2 | E2 z2 z4 z4 | z4 z2 B2 e4- | e2 dc d8- | d2 cB c4 z4 | %179
 B4 c4 z2 d2 | e2 =A2 B4 z2 c2 | dBcdec defdef | ge f2 z2 g2 c2 de | %183
 d2 c2 B4- B/4=A/4B/4A/4B/4A/4B/4A/4B/4A/4B/4A/4B | !fermata!B12 |] %185
V:2
 B,,4 B,4- | B,4 =A,4 | B,A,G,F, G,F,E,D, | E,D,C,B,, =A,,F,,=G,,A,, | B,,C,D,E, D,2 G,2 | %5
 C,D,E,F, E,2 A,2 | D,2 C,2 D,2 B,,2 | F,2 A,2 DCB,A, | B,=G,A,B, CB,A,G, | F,4- F,=G,A,F, | %10
 =G,A, B,2 =E,2 F,G, | A,B,A,=G, F,E,D,F, | B,,4 z4 | z DCB, A,=G,F,A, | D,2 B,,2 C,2 C,,2 | %15
 F,,C,=D,=E, F,=G,A,F, | =D,4 z2 B,,2 | E,,B,,C,=D, E,F,G,E, | C,2 E,2 C,2 A,,2 | %19
 D,,A,,B,,C, D,E,F,D, | G,A,G,F, E,D,C,E, | =A,,F,,=G,,A,, B,,C,D,B,, | E,2 C,2 F,2 F,,2 | %23
 B,,2 z2 z2 C2 | DCB,=A, B,2 F,2 | G,2 E,2 C,2 F,2 | D,2 B,,2 B,2 B,2 | B,2 A,B, C2 C2 | %28
 C2 B,C D2 D2 | D2 CB, C2 E2 | A,4 z D,E,F, | G,A,B,G, A,4 | D,F,G,A, B,CDB, | EFED C2 A,2 | %34
 D4 z2 A,2 | B,A,=G,F, E,D,C,B,, | A,,B,,C,D, E,F,G,E, | F,E,D,E, F,=G,A,F, | DCB,A, =G,F,E,G, | %39
 C,F,E,D, C,B,,A,,C, | D,,2 F,2 D,2 E,2 | A,=G,F,E, F,2 C,2 | D,2 B,,2 =G,,2 E,2 | %43
 C,B,,A,,B,, C,=D,E,C, | =D,C,B,,C, D,E,F,D, | E,F,G,F, E,D,_C,B,, | _C,E,D,C, B,,A,,G,,F,, | %47
 G,,2 A,,2 B,,G,,A,,B,, | _C,D,E,C, D,E,F,D, | G,A,G,F, E,F,G,E, | A,B,A,G, F,G,A,F, | %51
 =D,B,,C,D, E,F,G,E, | _CB,A,B, C4 | B,8 | z2 E,F, G,E,G,B, | E=D E4 D2 | ED_CB, CB,A,G, | %57
 A,G,F,E, =D,B,,C,D, | E,F,G,A, G,2 _C2 | F,G,A,B, A,2 D2 | G,2 F,2 G,2 E,2 | B,2 D2 G,F,E,D, | %62
 E,C,D,E, F,E,D,C, | B,,4- B,,C,D,B,, | C,D, E,2 =A,,2 B,,C, | D,E,D,C, B,,A,,G,,B,, | E,,2 z2 z4 | %67
 z G,F,E, D,C,B,,D, | G,,2 E,,2 F,,2 F,2 | B,,C,D,E, F,G,A,F, | G,A,B,C DEDC | B,A,G,F, E,F,G,E, | %72
 F,8- | F,8- | F,4 F4- | F8- | FGFE =DCB,D | E,F,G,A, B,C=DB, | GFEF GABG | EDCB, =A,=G,F,A, | %80
 D,G,F,E, D,C,B,,C, | D,C,D,E, F,E,F,F,, | !fermata!B,,8 | z8 |[M:6/4] z12 | z12 | z12 | z12 | %88
 z12 | z12 | z12 | z12 | z12 | z12 | B,,4 C,4 z2 D,2 | E,2 =A,,2 B,,4 z2 C,2 | %96
 D,B,,C,D,E,C, D,E,F,D,E,F, | G,E, F,2 z2 G,2 C,2 D,E, | =D,2 B,2 z2 E,2 B,,2 C,_D, | z12 | %100
 F,4 =G,4 z2 A,2 | B,2 =E,2 F,4 z2 =G,2 | A,F,=G,A,B,G, A,B,CA,B,C | DB, C2 z2 D2 =G,2 =A,B, | %104
 A,2 z2 z2 F2 C2 DE | D2 F,2 B,2 z2 _C2 z2 | B,2 z2 z2 E2 B,2 CD | C2 E,2 A,2 z2 C,2 z2 | %108
 D,2 E,2 F,2 D,2 G,2 B,2 | E,2 G,2 C,2 E,2 F,2 =A,2 | B,4 C4 z2 D2 | E2 =A,2 B,4 z2 C2 | %112
 DB,CDEC DEFDEF | GE F2 z2 G2 C2 DE | D2 B,2 E2 FG F2 E2 | =D2 EF E2 _D2 C2 DE | D2 CB, A,8- | %117
 A,8- A,G,F,E, | F,2 D2 C2 z2 A,2 z2 | E2 z2 F2 ED A4- | A4 z4 z4 | z12 | z2 E2 =D2 _D4 =CB, | %123
 C2 B,A, D2 CB, E2 DC | D2 z2 z4 z4 | F4 E4 z2 D2 | C2 G2 F4 z2 E2 | DFEDCE DCB,DCB, | %128
 =A,C B,2 z2 _A,2 E2 DC | D2 G2 F2 _F2 E4 | z2 E2 =D2 _D2 C2 _C2 | B,12- | %132
 B,2 B,2 A,B, _C2 F,2 =D2 | E2 F2 G2 CD E2 =A,2 | B,C D2- D2 CD E2 G,2 | F,2 =G,4 F,4 =E,2 | %136
 F,2 =A,2 B,2 _A,G, A,2 G,F, | G,2 z2 F,2 z2 E,2 z2 | D,12- | D,2 _C,B,, C,2 _F,4 E,D, | %140
 E,2 A,4 =G,F, G,2 A,B, | _C4 B,4 A,2[I:staff -1] B,_C | %142
 D2[I:staff +1] z2 z2 E2[I:staff -1] F2 =G2 | %143
 A2[I:staff +1] z2[I:staff -1] =G2[I:staff +1] z2[I:staff -1] A2[I:staff +1] z2 | %144
[I:staff -1] E2[I:staff +1] z2 z4 z4 | _C,2 _CB, C2 E2 =C2 A,2 | D2 A,2 F,2 D,2 F,2 A,2 | %147
 =D,2 =DC D2 F2 _D2 B,2 | E2 E,2 G,2 B,2 E,2 G,2 | z12 | F4 E4 z2 D2 | C2 G2 F4 z2 E2 | %152
 DFEDCE DCB,DCB, | =A,C B,2 z2 A,2 E2 DC | D6 CB, C2[I:staff -1] F2- | %155
 F2 =E2 F2[I:staff +1] A,2 =G,A, B,2 | A,B,A,=G,F,=E, F,G,A,G,A,B, | C2 z2 z2 G,2 F,2 =G,2 | %158
 A,B, C2 z4 z4 | z2 C2 D2 B,2 =E,2 F,2- | F,2 D2 =E,6 =D,C, | F,6 E,D, =G,4- | G,2 F,E, A,6 =G,F, | %163
 B,2 C2 =G,4 A,4 | z2 B,2 C2 F,2 =G,4 | z2 A,2 B,=G, A,B,CA,B,C | DB,CDEC D2 z2 E2 | %167
 A,2 B,C B,2[I:staff -1] CD E4- | E2 G4 FE F2 A2 | =D2[I:staff +1] z2 z2 B,2[I:staff -1] A2 GF | %170
 GF G2 C6[I:staff +1] B,2- | B,2 =A,=G, A,2[I:staff -1] C2[I:staff +1] F,4- | F,2 E,D, E,2 E4 D2- | %173
 D2 C4 _C2 B,2 =A,2 | B,12- | B,2 =A,2 B,4 _A,4- | A,4 =G,4 _G,4 | F,8- F,G,F,=E, | F,6 C2 F4 | %179
 z4 G,4 F,4 | z2 E,2 =D,2 A,2 G,4 | z2 F,2 E,G, F,E,D,F,E,D, | C,E,D,C,B,,D, C,2 z2 G,2 | %183
[I:staff -1] F2 E2 D4 C4 | D12 |] %185
V:3
 x8 | x8 | D2 B,2 B2 B2 | B2 =AB c2 c2 | c2 B=A B4- | BAGF GEFG- | GF=G=A BcdB | c2 C2 F4- | %8
 F4 =E4 | F=EF=G ABcA | BA=GA BcdB | c4 z2 fc | dedc BA=GB | =E2 =G2 C2 c2 | BcdB =GdcB | %15
 A4 z2[I:staff +1] C2 | B,C=D[I:staff -1]E FGAF | G4 z2 G2- | %18
 G2[I:staff +1] __B,2 A,2[I:staff -1] c2 | d2 E2 D2 z2 | z2 D2 G4- | G2 FE D4 | %22
[I:staff +1] C4[I:staff -1] z4 | z[I:staff +1] B,CD EF[I:staff -1]GE | F2 z2 dcB=A | B4- B=A=GA | %26
 B2 F2[I:staff +1] D2 EF | G4- G[I:staff -1]FEG | FEDE FGAF | G4 z2 D2 | CGFE F4- | F2 ED CDB,C | %32
 D2 z2 BAGF | G2[I:staff +1] E2[I:staff -1] AG[I:staff +1]FE |[I:staff -1] FEFG ABcA | d8- | %36
 d2 ed c2 e2 | A2 fe d2 c2 | B4 z2 B2- | B2 A2 z2 E2- | E2[I:staff +1] DC B,A,=G,B, | %41
 A,[I:staff -1]EF=G ABcA | e2 z2 z4 | z2 A,2 E2 E2 | E2 =DE F2 F2 | F2 EF G2 G2 | G2 FG A2 A2- | %47
 AAGF G2 D2 | E2 _C2 A,2 D2 |[I:staff +1] B,4[I:staff -1] z2 B2 | _c6 c2 | B6 e2 | A2 z2 z2 A2- | %53
 ABAG FE=DF | E2 z2 z4 | x8 | z4 ed_cB | _cBAG F2 B2 | G2 B2 z GFG | A2 E2 F4 | G4 z2 c2 | %61
 dcB=A B2 F2 | G2 E2 C2 F2 | D2[I:staff +1] B,2[I:staff -1] B2 B2 | B2 =AB c2 c2 | c2 Bc d2 d2 | %66
 d2[I:staff +1] B,2 C2 E2 |[I:staff -1] E2[I:staff +1] =A,2 B,2[I:staff -1] B2 | B4 =A4 | %69
 BF B4 A2- | AD G4 F2- | F2 ED C2 B,2 | =A,2[I:staff +1] B,4 A,2 | B,CDB, CDEC | %74
 DEF[I:staff -1]=G =ABcA | BcdB cdec | =dcde fgaf | g2 fe =d2 f2 | B2 gf e2 d2 | c4 z2 c2- | %80
 c2 B2 z2 G2 | F3 G C4 | =D8 | x8 |[M:6/4] B,2 z2 C4 z2 D2 | E2 =A,2 B,4 z2 C2 | DB,CDEC DEFDEF | %87
 GE F2 z2 G2 C2 DE | D2[I:staff +1] =A,2 B,2 =B,2 C4 |[I:staff -1] z2 C2 D2 =D2 _E2 =E2 | F12- | %91
 F2 =E=D E4 z2 _E2- | E2 =DC D4 z2 _D2- | D2 CB, C2 _G2 F2 E2- | E2 =D2 E2 =E2 F4 | %95
 z2 F2 G2 =G2 A2 =A2 | B12- | B2 =A=G A4 z2 _A2- | A2 =GF G4 z2 _G2- | G2 FE F6 B,2 | x12 | x12 | %102
 x12 | B2 z2 =G2 z2 c2 z2 | C2 z2 c2 z2 F2 z2 | Bc d2 z2 B2 F2 GA | G2 E2 B2 z2 E2 z2 | %107
 AB c2 z2 A2 E2 FG | F2 G2 A6 GF | G2 E2 z2 G4 FE | D2 z2 =A4 B4 | z2 c2 d2[I:staff +1] =G2 =A4 | %112
[I:staff -1] z2 B2 c=A BcdBcd | ecdefd e2 z2 f2 | B2 cd c2 B2 =A2 Bc | B2 A2 =G2 AB A2 _G2 | %116
 F2 EF G2 FE D2 d2 | cBAGFE D2 A4- | A8 d4- | d8 c4 | z2 d2 c2 _c4 BA | B2 z2 _c2 z2 d2 B2 | %122
 G2 z2 A2 z2 B2 z2 | z2 A2 =G2 _G4 FE | FG A2 =G2 =AB c2 _A2 | B2 d2 c2 _c2 B4 | %126
 z2 B2 =A2 _A2 =G2 _G2 | F12- | F4 z4 z4 | B4 _A4 z2 G2 | F2 _c2 B4 z2 A2 | GBAGFA GFEGFE | %132
 =DF E2 z2 [DB]2 B x GF | GA B4 =AB c2 E2- | [ED]2 D B6 A2- x | AF B2 =A2 _A2 =G4 | %136
 z2 G2 F2 _F2 E2 __E2 | D8- D2 _C2- | C2[I:staff +1] B,A,G,B, A,G,F,A,=G,F, | =G,4 A,4 B,4 | %140
 _C4 B,6[I:staff -1] _F2 | E12 | z2 =d2 eB e2- e_d_cB | _c2 z2 d2 z2 c2 z2 | B2 z2 z4 _F4- | %145
 F2 EDE=F G4 FE | F12- | FGFEFG A4 GF | G12- | G4 F6 =A2 | Bc d4 c2 d2 F2 | E2 c2 B2 =d2 e2 c2- | %152
 c=A B4 A2 B2 z2 | x12 | x12 | x12 | c4 B4 z2 A2 | =G2 d2 c4 z2 B2 | AcBA=GB AGFAGF | %159
 =E=G F2 z2 _E2 B2 AG | AF =G2 z2 G4 F=E | A6 =GF B4- | B2 A=G c6 BA | =G2 A2 B2 B,2 C2 A2- | %164
 A2 =G2 A2 z2 B2 z2 | E2 A2 =G2 _G2 F2 _F2 | E2 z2 z4 z4 | x12 | x12 | x12 | x12 | x12 | z4 G4 F4 | %173
 z2 E2 =D2 A2 G4 | z E2 x EG FEDFED | CEDCB,D C2 z2 B,2 | F2 E=D E4 z2 E2 | c6 B=A B4- | %178
 B6 =A=G A4 | D4 E4 z2 F2 | G2 C2 =D4 z2 =A2 | B=G=ABcA BcdBcd | ec d2 z2 e2 =A2 Bc | B2 G2 F8 | %184
 F12 |] %185
V:4
 x8 | x8 | x8 | x8 | x8 | x8 | x8 | x8 | x8 | x8 | x8 | x8 | x8 | x8 | x8 | x8 | x8 | x8 | x8 | %19
 x8 | x8 | x8 | x8 | x8 | x8 | x8 | x8 | x8 | x8 | x8 | x8 | x8 | x8 | x8 | x8 | x8 | x8 | x8 | %38
 x8 | x8 | x8 | x8 | x8 | x8 | x8 | x8 | x8 | x8 | x8 | x8 | x8 | x8 | x8 | x8 | x8 | x8 | x8 | %57
 x8 | x8 | x8 | x8 | x8 | x8 | x8 | x8 | x8 | x8 | x8 | x8 | x8 | x8 | x8 | x8 | x8 | x8 | x8 | %76
 x8 | x8 | x8 | x8 | x8 | x8 | x8 | x8 |[M:6/4] x12 | x12 | x12 | x12 | x12 | x12 | x12 | x12 | %92
 x12 | x12 | x12 | x12 | x12 | x12 | x12 | z2 A,,2 D,2 C,B,, A,,2 =G,,2 | %100
 A,,2 =A,,2 B,,2 =B,,2 C,4 | z2 C,2 D,2 =D,2 _E,2 =E,2 | F,12- | F,2 =E,=D, E,8 | %104
 F,=E,F,=G, A,2 z2 =A,2 z2 | B,2 B,,C, D,2 z2 =D,2 z2 | E,=D,E,F, G,2 z2 =G,2 z2 | %107
 A,2 A,,B,, C,2 z2 A,,2 z2 | x12 | x12 | x12 | x12 | x12 | x12 | x12 | x12 | z4 C,4 D,4 | %117
 z2 E,2 F,2 B,,2 C,4 | z2 D,2 E,C, D,E,F,D,E,F, | G,E,F,G,A,F, G,2 z2 A,2 | %120
 D,2 E,F, E,2 F,G, F,2 D,2 | G,2 A,B, A,2 B,_C B,2 G,2 | _C2 z2 C2 z2 B,2 E,2 | %123
 A,2 F,2 B,,2 E,2 C,2 A,,2 | D,2 D4 CB, =A,2 F,2 | B,8- B,2 B,2 | E,D, E,2 F,2 F,,2 =G,,2 =A,,2 | %127
 B,,2 z2 E,2 z2 D,2 z2 | C,2 D,E, F,4 F,,4 | B,,4 z2 B,,2 _C,2 =C,2 | =D,F, A,4 =G,2 A,2 D,2 | %131
 E,2 z2 F,2 z2 G,2 z2 | A,2 G,2 F,G, A,2 =D,2 B,,2 | E,2 D,2 C,D, E,2 =A,,C,F,E, | %134
 D,F,B,A,G,F, E,D,C,D,E,C, | D,2 B,,2 C,8 | F,,2 z2 z4 z4 | x12 | x12 | x12 | x12 | %141
 E,4 D,4 z2 _C,2 | B,,2 _F,2 E,4 z2 D,2 | _C,E,D,C,B,,D, C,B,,A,,C,B,,A,, | %144
 =G,,B,, A,,2 z2 G,,2 D,2 _C,B,, | x12 | x12 | x12 | x12 | =A,,2 =A,2 A,B, A,=G, A,2 F,2 | %150
 B,4- B,C B,=A, B,4- | B,CB,=A, B,4- B,CB,A, | B,4 z2 F,2 G,4- | G,2 F,E, F,8- | %154
 F,2 F,2 G,2 =G,2 A,2 =A,2 | B,2 B,,C, D,2 =D,2 E,2 =E,2 | F,2 E,2 D,4 C,4 | %157
 z2 B,,2 =A,,2 E,2 D,4 | z2 C,2 B,,D, C,B,,A,,C,B,,A,, | =G,,B,,A,,G,,F,,A,, G,,2 z2 F,,2 | %160
 C,2 B,,A,, B,,2 =G,,2 A,,4- | A,,2 =G,,F,, B,,6 A,,G,, | C,6 B,,A,, D,4- | D,2 C,2 B,,2 E,4 =D,2 | %164
 E,2 D,2 C,E, D,C,B,,D,C,B,, | A,,2 z2 z4 A,4- | A,2 A,2 =G,A, B,2 E,2 _G,2- | %167
 G,2 F,4 E,2 B,,2 C,D, | C,2 A,,2 B,,2 C,2 D,2 _C,2 | B,,2 A,,G,, A,,2 B,,2 =C,2 =D,2 | %170
 E,=D,E,F, G,2 F,2 E,2 _D,2 | C,2 D,2 C,2 B,,2 =A,,2 F,,2 | B,,4 C,4 z2 D,2 | %173
 E,2 =A,,2 B,,4 z2 C,2 | x12 | G,E, F,2 z2 G,2 C,2 =D,E, | =D,2 B,,2 E,2 _D,2 C,2 B,,2 | %177
 =A,,2 F,,2 B,,2 C,2 D,2 B,,2 | F,2 F,,2 F,4- F,G,F,E, | G,A,G,F, E,4 D,4 | z2 C,2 B,,2 F,2 E,4 | %181
 z2 D,2 C,E, D,C,B,,D,C,B,, | =A,,C,B,,A,,=G,,B,, A,,2 z2 F,,2 | B,,2 E,2 F,4 F,,4 | %184
 !fermata!B,,12 |] %185

